images/package-down.svg

<svg xmlns="http://www.w3.org/2000/svg" width="24" height="24"><path d="M5.12 5l.81-1h12l.94 1M12 17.5L6.5 12H10v-2h4v2h3.5L12 17.5m8.54-12.27l-1.39-1.68A1.45 1.45 0 0 0 18 3H6c-.47 0-.88.21-1.16.55L3.46 5.23C3.17 5.57 3 6 3 6.5V19a2 2 0 0 0 2 2h14a2 2 0 0 0 2-2V6.5c0-.5-.17-.93-.46-1.27z"/></svg>

<?xml version="1.0" encoding="UTF-8"?><!DOCTYPE svg PUBLIC "-//W3C//DTD SVG 1.1//EN" "http://www.w3.org/Graphics/SVG/1.1/DTD/svg11.dtd"><svg xmlns="http://www.w3.org/2000/svg" xmlns:xlink="http://www.w3.org/1999/xlink" version="1.1" width="24" height="24" viewBox="0 0 24 24"><path d="M5.12,5L5.93,4H17.93L18.87,5M12,17.5L6.5,12H10V10H14V12H17.5L12,17.5M20.54,5.23L19.15,3.55C18.88,3.21 18.47,3 18,3H6C5.53,3 5.12,3.21 4.84,3.55L3.46,5.23C3.17,5.57 3,6 3,6.5V19A2,2 0 0,0 5,21H19A2,2 0 0,0 21,19V6.5C21,6 20.83,5.57 20.54,5.23Z" /></svg>
